svg/device/air_condition_open_line.svg

<?xml version="1.0" encoding="UTF-8"?>
<svg width="24px" height="24px" viewBox="0 0 24 24" version="1.1" xmlns="http://www.w3.org/2000/svg" xmlns:xlink="http://www.w3.org/1999/xlink">
    <title>air_condition_open_line</title>
    <g id="Icon" stroke="none" stroke-width="1" fill="none" fill-rule="evenodd">
        <g id="Device" transform="translate(-96.000000, -288.000000)">
            <g id="air_condition_open_line" transform="translate(96.000000, 288.000000)">
                <path d="M24,0 L24,24 L0,24 L0,0 L24,0 Z M12.5935,23.2578 L12.5819,23.2595 L12.5109,23.295 L12.4919,23.2987 L12.4767,23.295 L12.4057,23.2595 C12.3958,23.2564 12.387,23.259 12.3821,23.2649 L12.378,23.2758 L12.3609,23.7031 L12.3659,23.7235 L12.3769,23.7357 L12.4805,23.8097 L12.4953,23.8136 L12.5071,23.8097 L12.6107,23.7357 L12.6233,23.7197 L12.6267,23.7031 L12.6096,23.2758 C12.6076,23.2657 12.601,23.2593 12.5935,23.2578 Z M12.8584,23.1453 L12.8445,23.1473 L12.6598,23.2397 L12.6499,23.2499 L12.6472,23.2611 L12.6651,23.6906 L12.6699,23.7034 L12.6784,23.7105 L12.8793,23.8032 C12.8914,23.8069 12.9022,23.803 12.9078,23.7952 L12.9118,23.7812 L12.8777,23.1665 C12.8753,23.1546 12.8674,23.147 12.8584,23.1453 Z M12.143,23.1473 C12.1332,23.1424 12.1222,23.1453 12.1156,23.1526 L12.1099,23.1665 L12.0758,23.7812 C12.0751,23.7927 12.0828,23.8019 12.0926,23.8046 L12.1083,23.8032 L12.3092,23.7105 L12.3186,23.7024 L12.3225,23.6906 L12.3404,23.2611 L12.3372,23.2485 L12.3278,23.2397 L12.143,23.1473 Z" id="MingCute" fill-rule="nonzero"></path>
                <path d="M18,4 C19.6569,4 21,5.34315 21,7 L21,12 C21,13.6569 19.6569,15 18,15 L6.00003,15 C4.34317,15 3.00003,13.6569 3.00003,12 L3.00003,7 C3.00003,5.34315 4.34317,4 6.00003,4 L18,4 Z M18,6 L6.00003,6 C5.48718929,6 5.06452214,6.38604429 5.00675766,6.88337975 L5.00003,7 L5.00003,12 C5.00003,12.51285 5.38606566,12.9355092 5.8834079,12.9932725 L6.00003,13 L6.00003,11 C6.00003,10.48715 6.38606566,10.0644908 6.8834079,10.0067275 L7.00003,10 L17,10 C17.51285,10 17.9355092,10.386027 17.9932725,10.8833761 L18,11 L18,13 C18.51285,13 18.9355092,12.613973 18.9932725,12.1166239 L19,12 L19,7 C19,6.48716857 18.613973,6.06449347 18.1166239,6.0067278 L18,6 Z M16,12 L8.00003,12 L8.00003,13 L16,13 L16,12 Z M16,7 C16.5523,7 17,7.44772 17,8 C17,8.55228 16.5523,9 16,9 C15.4477,9 15,8.55228 15,8 C15,7.44772 15.4477,7 16,7 Z M10,16 C10.5523,16 11,16.4477 11,17 L11,18.1716 C11,18.9672 10.684,19.7303 10.1213,20.2929 L9.70713,20.7071 C9.31661,21.0976 8.68344,21.0976 8.29292,20.7071 C7.9024,20.3166 7.9024,19.6834 8.29292,19.2929 L8.70713,18.8787 C8.89467,18.6911 9.00003,18.4368 9.00003,18.1716 L9.00003,17 C9.00003,16.4477 9.44774,16 10,16 Z M13,17 C13,16.4477 13.4477,16 14,16 C14.5523,16 15,16.4477 15,17 L15,18.1716 C15,18.4368 15.1054,18.6911 15.2929,18.8787 L15.7071,19.2929 C16.0977,19.6834 16.0977,20.3166 15.7071,20.7071 C15.3166,21.0976 14.6834,21.0976 14.2929,20.7071 L13.8787,20.2929 C13.3161,19.7303 13,18.9672 13,18.1716 L13,17 Z M6.00003,16 C6.55231,16 7.00003,16.4477 7.00003,17 L7.00003,17.6126 C7.00003,18.4734 6.44917,19.2377 5.63248,19.5099 L4.31625,19.9487 C3.79231,20.1233 3.22599,19.8402 3.05134,19.3162 C2.8767,18.7923 3.15986,18.226 3.6838,18.0513 L5.00003,17.6126 L5.00003,17 C5.00003,16.4477 5.44774,16 6.00003,16 Z M17,17 C17,16.4477 17.4477,16 18,16 C18.5523,16 19,16.4477 19,17 L19,17.6126 L20.3163,18.0513 C20.8402,18.226 21.1234,18.7923 20.9487,19.3162 C20.7741,19.8402 20.2077,20.1233 19.6838,19.9487 L18.3676,19.5099 C17.5509,19.2377 17,18.4734 17,17.6126 L17,17 Z" id="形状" fill="#09244B"></path>
            </g>
        </g>
    </g>
</svg>

<svg xmlns="http://www.w3.org/2000/svg" width="24" height="24"><g fill="none" fill-rule="evenodd"><path d="M24 0v24H0V0h24ZM12.594 23.258l-.012.002-.071.035-.02.004-.014-.004-.071-.036c-.01-.003-.019 0-.024.006l-.004.01-.017.428.005.02.01.013.104.074.015.004.012-.004.104-.074.012-.016.004-.017-.017-.427c-.002-.01-.009-.017-.016-.018Zm.264-.113-.014.002-.184.093-.01.01-.003.011.018.43.005.012.008.008.201.092c.012.004.023 0 .029-.008l.004-.014-.034-.614c-.003-.012-.01-.02-.02-.022Zm-.715.002a.023.023 0 0 0-.027.006l-.006.014-.034.614c0 .012.007.02.017.024l.015-.002.201-.093.01-.008.003-.011.018-.43-.003-.012-.01-.01-.184-.092Z"/><path fill="#09244B" d="M18 4a3 3 0 0 1 3 3v5a3 3 0 0 1-3 3H6a3 3 0 0 1-3-3V7a3 3 0 0 1 3-3h12Zm0 2H6a1 1 0 0 0-.993.883L5 7v5a1 1 0 0 0 .883.993L6 13v-2a1 1 0 0 1 .883-.993L7 10h10a1 1 0 0 1 .993.883L18 11v2a1 1 0 0 0 .993-.883L19 12V7a1 1 0 0 0-.883-.993L18 6Zm-2 6H8v1h8v-1Zm0-5a1 1 0 1 1 0 2 1 1 0 0 1 0-2Zm-6 9a1 1 0 0 1 1 1v1.172a3 3 0 0 1-.879 2.12l-.414.415a1 1 0 0 1-1.414-1.414l.414-.414A1 1 0 0 0 9 18.172V17a1 1 0 0 1 1-1Zm3 1a1 1 0 1 1 2 0v1.172a1 1 0 0 0 .293.707l.414.414a1 1 0 1 1-1.414 1.414l-.414-.414A3 3 0 0 1 13 18.172V17Zm-7-1a1 1 0 0 1 1 1v.613a2 2 0 0 1-1.368 1.897l-1.316.439a1 1 0 0 1-.632-1.898L5 17.613V17a1 1 0 0 1 1-1Zm11 1a1 1 0 1 1 2 0v.613l1.316.438a1 1 0 0 1-.632 1.898l-1.316-.44A2 2 0 0 1 17 17.614V17Z"/></g></svg>
